modules/entypo/icons/resize-small.svg

<svg height="1000px" width="900px" xmlns="http://www.w3.org/2000/svg">
  <g>
    <path d="M156 704c0 0 -106 -100 -106 -100c0 0 296 0 296 0c0 0 0 296 0 296c0 0 -100 -106 -100 -106c0 0 -146 156 -146 156c0 0 -100 -100 -100 -100c0 0 156 -146 156 -146m744 -554c0 0 -154 144 -154 144c0 0 104 100 104 100c0 0 -294 0 -294 0c0 0 0 -294 0 -294c0 0 100 104 100 104c0 0 144 -154 144 -154c0 0 100 100 100 100" />
  </g>
</svg>

<svg height="1000" width="900" viewBox="0 0 900 1000" xmlns="http://www.w3.org/2000/svg"><path d="M156 704L50 604h296v296L246 794 100 950 0 850l156-146m744-554L746 294l104 100H556V100l100 104L800 50l100 100"/></svg>
